X:1
T:Bickley, 88.88.88
T:Bickley, 88.88.88
T:William Henry Monk, 1875
T:Public Domain Courtesy of the Cyber Hymnal™
C:William Henry Monk, 1875
Z:Public Domain
Z:Courtesy of the Cyber Hymnal™
%%score ( 1 2 ) ( 3 4 )
L:1/8
Q:1/4=110
M:4/4
K:G
V:1 treble 
V:2 treble 
V:3 bass 
V:4 bass 
V:1
 [DG]2 | [DB]2 [GB]2 [Dd]2 G2 | [GA]2 (Bc) [GB]2 [Dd]2 | [Gc]2 [B,B]2 [EA]2 [Dd]2 | %4
 [DG]2 [^CG]2 !fermata![DF]2 D2 | [DE]2 [DF]2 [DG]2 [DA]2 | [DB]2 [DG]2 E2 E2 | %7
 [EF]2 [E^G]2 [EA]2 [EB]2 | [Ec]2 [EA]2 !fermata![DF]2 D2 | [Dd]2 c2 [GB]2 [FA]2 | %10
 [EG]2 [=FG]2 [Ee]2 [Ed]2 | [Ec]2 [DB]2 [EA]2 E2 | [DG]2 [DF]2 !fermata![DG]2 |] %13
V:2
 x2 | x6 G2 | x2 F2 x4 | x8 | x6 D2 | x8 | x4 E2 E2 | x8 | x6 D2 | x2 (EF) x4 | x8 | x6 E2 | x6 |] %13
V:3
 [G,B,]2 | [G,B,]2 [G,D]2 [F,A,]2 [E,B,]2 | [C,E]2 [D,D]2 [G,D]2 (A,B,) | %3
 [E,C]2 F,G, [C,A,]2 [B,,B,]2 | [E,B,]2 [E,G,]2 !fermata![D,A,]2 [D,D]2 | %5
 [D,D]2 [D,C]2 [E,B,]2 [F,A,]2 | G,2 [B,,G,]2 [C,G,]2 [E,E]2 | [E,E]2 [E,D]2 [F,C]2 [^G,B,]2 | %8
 A,2 [C,A,]2 !fermata![D,A,]2 D2 | [B,D]2 A,2 [G,B,]2 [^D,B,]2 | (B,G,) (A,B,) [C,C]2 [E,^G,]2 | %11
 [A,,A,]2 [B,,^G,]2 [C,A,]2 [^C,^A,]2 | [D,B,]2 [D,A,]2 !fermata![G,B,]2 |] %13
V:4
 x2 | x8 | x6 F,2 | x2 D,2 x4 | x8 | x8 | G,2 x6 | x8 | A,2 x2 (DC) x2 | x2 A,2 x4 | E,2 D,2 x4 | %11
 x8 | x6 |] %13

